dist/images/grace/advantages2.svg

<svg width="126" height="126" viewBox="0 0 126 126" fill="none" xmlns="http://www.w3.org/2000/svg">
<circle cx="63" cy="63" r="61.5" stroke="#E2704C" stroke-width="3"/>
<path d="M92.2129 89.4259H90.4258V40.9357C90.4258 40.0833 89.8239 39.3497 88.988 39.1831L53.1267 32.0347C52.6019 31.9299 52.0576 32.0661 51.6438 32.4055C51.2301 32.745 50.9902 33.252 50.9902 33.7872V60.713H43.7227V48.2032C43.7227 47.2163 42.9225 46.4161 41.9355 46.4161C40.9486 46.4161 40.1484 47.2163 40.1484 48.2032V60.713H38.3613C37.3744 60.713 36.5742 61.5132 36.5742 62.5001V89.4259H34.7871C33.8001 89.4259 33 90.226 33 91.213C33 92.2 33.8001 93.0001 34.7871 93.0001H92.2129C93.1999 93.0001 94 92.2 94 91.213C94 90.226 93.1999 89.4259 92.2129 89.4259ZM54.5645 35.9657L86.8516 42.4017V89.4259H76.0098V85.5527C80.0834 84.7226 83.1582 81.1123 83.1582 76.797C83.1582 72.0913 79.4681 64.2872 74.2227 64.2872C68.9911 64.2872 65.2871 72.0864 65.2871 76.797C65.2871 81.1121 68.3619 84.7225 72.4355 85.5527V89.4259H61.7129V62.5001C61.7129 61.5132 60.9127 60.713 59.9258 60.713H54.5645V35.9657ZM74.2227 82.1583C71.2664 82.1583 68.8613 79.7532 68.8613 76.797C68.8613 73.4402 71.6912 67.8614 74.2227 67.8614C76.7745 67.8614 79.584 73.4652 79.584 76.797C79.584 79.7532 77.1789 82.1583 74.2227 82.1583ZM40.1484 64.2872H58.1387V89.4259H40.1484V64.2872Z" fill="#373737"/>
<path d="M45.5098 71.4355H52.7773C53.7643 71.4355 54.5645 70.6354 54.5645 69.6484C54.5645 68.6615 53.7643 67.8613 52.7773 67.8613H45.5098C44.5228 67.8613 43.7227 68.6615 43.7227 69.6484C43.7227 70.6354 44.5228 71.4355 45.5098 71.4355Z" fill="#373737"/>
<path d="M52.7773 75.0098H45.5098C44.5228 75.0098 43.7227 75.8099 43.7227 76.7969C43.7227 77.7838 44.5228 78.584 45.5098 78.584H52.7773C53.7643 78.584 54.5645 77.7838 54.5645 76.7969C54.5645 75.8099 53.7643 75.0098 52.7773 75.0098Z" fill="#373737"/>
<path d="M52.7773 82.1582H45.5098C44.5228 82.1582 43.7227 82.9584 43.7227 83.9453C43.7227 84.9323 44.5228 85.7324 45.5098 85.7324H52.7773C53.7643 85.7324 54.5645 84.9323 54.5645 83.9453C54.5645 82.9584 53.7643 82.1582 52.7773 82.1582Z" fill="#373737"/>
<path d="M59.9258 46.416H67.0742C68.0612 46.416 68.8613 45.6159 68.8613 44.6289C68.8613 43.6419 68.0612 42.8418 67.0742 42.8418H59.9258C58.9388 42.8418 58.1387 43.6419 58.1387 44.6289C58.1387 45.6159 58.9388 46.416 59.9258 46.416Z" fill="#373737"/>
<path d="M67.0742 53.5645C68.0612 53.5645 68.8613 52.7643 68.8613 51.7773C68.8613 50.7904 68.0612 49.9902 67.0742 49.9902H59.9258C58.9388 49.9902 58.1387 50.7904 58.1387 51.7773C58.1387 52.7643 58.9388 53.5645 59.9258 53.5645H67.0742Z" fill="#373737"/>
<path d="M74.2227 53.5645H81.3711C82.3581 53.5645 83.1582 52.7643 83.1582 51.7773C83.1582 50.7904 82.3581 49.9902 81.3711 49.9902H74.2227C73.2357 49.9902 72.4355 50.7904 72.4355 51.7773C72.4355 52.7643 73.2357 53.5645 74.2227 53.5645Z" fill="#373737"/>
<path d="M74.2227 60.7129H81.3711C82.3581 60.7129 83.1582 59.9127 83.1582 58.9258C83.1582 57.9388 82.3581 57.1387 81.3711 57.1387H74.2227C73.2357 57.1387 72.4355 57.9388 72.4355 58.9258C72.4355 59.9127 73.2357 60.7129 74.2227 60.7129Z" fill="#373737"/>
</svg>

<svg width="126" height="126" fill="none" xmlns="http://www.w3.org/2000/svg"><circle cx="63" cy="63" r="61.5" stroke="#E2704C" stroke-width="3"/><path d="M92.213 89.426h-1.787v-48.49c0-.853-.602-1.586-1.438-1.753l-35.861-7.148a1.787 1.787 0 00-2.137 1.752v26.926h-7.267v-12.51a1.787 1.787 0 00-3.575 0v12.51h-1.787c-.987 0-1.787.8-1.787 1.787v26.926h-1.787a1.787 1.787 0 100 3.574h57.426a1.787 1.787 0 100-3.574zm-37.648-53.46l32.287 6.436v47.024H76.01v-3.873c4.073-.83 7.148-4.44 7.148-8.756 0-4.706-3.69-12.51-8.935-12.51-5.232 0-8.936 7.8-8.936 12.51 0 4.315 3.075 7.925 7.148 8.756v3.873H61.714V62.5c0-.987-.8-1.787-1.787-1.787h-5.361V35.966zm19.658 46.192a5.367 5.367 0 01-5.362-5.361c0-3.357 2.83-8.936 5.362-8.936 2.552 0 5.361 5.604 5.361 8.936a5.367 5.367 0 01-5.361 5.361zm-34.075-17.87h17.99v25.138h-17.99V64.287z" fill="#373737"/><path d="M45.51 71.436h7.267a1.787 1.787 0 100-3.575H45.51a1.787 1.787 0 000 3.575zm7.267 3.574H45.51a1.787 1.787 0 100 3.574h7.267a1.787 1.787 0 000-3.574zm0 7.148H45.51a1.787 1.787 0 000 3.574h7.267a1.787 1.787 0 100-3.574zm7.149-35.742h7.148a1.787 1.787 0 100-3.574h-7.148a1.787 1.787 0 100 3.574zm7.148 7.149a1.787 1.787 0 000-3.575h-7.148a1.787 1.787 0 000 3.575h7.148zm7.149 0h7.148a1.787 1.787 0 000-3.575h-7.148a1.787 1.787 0 000 3.575zm0 7.148h7.148a1.787 1.787 0 000-3.574h-7.148a1.787 1.787 0 100 3.574z" fill="#373737"/></svg>
